X:1

T:Roast Beef of Old England, The

L:1/8

M:6/8

S:Chappell – Popular Music of the Olden Time (1859)

Z:AK/Fiddler’s Companion

K:B Flat Major

F|B>cB ABc|dBd c>BA|B>cB A>GF|GCE F2F|GEG B>AG|

FDB, G3|c>de A>GF|B3 F2D|E>FG FBA|(B3 B2)||

